icons/notification-badge-line.svg

<svg viewBox="0 0 24 24" fill="currentColor" xmlns="http://www.w3.org/2000/svg">
    <path d="M13.3414 4C13.1203 4.62556 13 5.29873 13 6H5V20H19V12C19.7013 12 20.3744 11.8797 21 11.6586V21C21 21.5523 20.5523 22 20 22H4C3.44772 22 3 21.5523 3 21V5C3 4.44772 3.44772 4 4 4H13.3414ZM19 8C20.1046 8 21 7.10457 21 6C21 4.89543 20.1046 4 19 4C17.8954 4 17 4.89543 17 6C17 7.10457 17.8954 8 19 8ZM19 10C16.7909 10 15 8.20914 15 6C15 3.79086 16.7909 2 19 2C21.2091 2 23 3.79086 23 6C23 8.20914 21.2091 10 19 10Z"/>
</svg>

<svg xmlns="http://www.w3.org/2000/svg" viewBox="0 0 24 24">
    <g>
        <path fill="none" d="M0 0h24v24H0z"/>
        <path d="M13.341 4A5.99 5.99 0 0 0 13 6H5v14h14v-8a5.99 5.99 0 0 0 2-.341V21a1 1 0 0 1-1 1H4a1 1 0 0 1-1-1V5a1 1 0 0 1 1-1h9.341zM19 8a2 2 0 1 0 0-4 2 2 0 0 0 0 4zm0 2a4 4 0 1 1 0-8 4 4 0 0 1 0 8z"/>
    </g>
</svg>
